X:1
T:Arthur Berry
T:Yellow Barber
N:From the playing of Alfred Bailey (1918-1996, Fleming
N:County, northeast Ky.), recorded in the field in 1986 by John Harrod.
M:C|
L:1/8
R:Reel
Q:"Quick"
D: https://soundarchives.berea.edu/items/show/3956
Z:Transcribed by Andrew Kuntz
K:D
A,-|(B,[D3D3])[D4D4]|[D2D2]B,D EDB,A,|(C[C3E3]) [C4E4]|EEDE FEEE|
D(F[A2A2]) [A4A4]|ABAF EDDe|fedB AFED|(A,[D3D3])[D4D4]|
A,B,B,C D2D2|FDEF EDB,A,|(C[C3E3]) [C4E4]|ECEE GFEE|
D(F[A2A2]) [A4A4]|ABAF EDDe|fedB AFED|(A,[D3D3])[D4D4]||
ABde f2[d2f2]|ABdf edBA|ABcd e2e2|Acce gffe|
fefe dBdB|ABAF FEDe|fedB AFED|(A,[D3D3])[D4D4]|
ABde f2[d2f2]|ABdf edBA|(c[e3e3]) [e4e4]|AAce gfee|
fefe dBdB|ABAF FEDe|fedB AFED|(A,[D3D3])[D4D4]||

